!!!!SEGMENT: pl-wtm--670-sp-3678--001-017_schumann-robert--piosenki-dla-mlodocianego-wieku-piotr-maszynski-17-powitanie-wiosny.krn
!!!cenid: 18xx:4769
!!!COM: Schumann, Robert
!!!COM-rismID: pe131206
!!!CDT: 1810/06/08-1856/07/29
!!!CNT: German
!!!GTL: Piosenki dla młodocianego wieku (Piotr Maszyński)
!!!OTL: 17. Powitanie wiosny
!!!OMV: 017
!!!PDT: 1871
!!!AGN: Secular; Song; Children
!!!YEC: Copyright 2022 Narodowy Instytut Fryderyka Chopina (https://polishscores.org)
!!!YEM: License CC-BY-4.0 (https://creativecommons.org/licenses/by/4.0)
!!!SMS-siglum: PL-Wtm
!!!SMS-shelfmark: 670 śp 3678
!!!SMS-variant:
!!!SMS-altvar:
!!!SMS-shelfwork: 001-017 G
!!!NIFC-rismSourceID: 1001185478
!!!NIFC-rismChildID: 1001185478
!!!NIFC-islandoraID: pl-wtm:57754
!!!URL-pdf-islandora: https://repozytorium.nifc.pl/islandora/object/pl-wtm%3A57754/datastream/PDF/view
!!!URL-scan: https://polish.musicsources.pl/pl/lokalizacje/galeria/druki-muzyczne/19483/12 @EN{Scan on Polish Music Sources Website} @PL{Skany w portalu Dziedzictwo Muzyki Polskiej w otwartym dostępie}
!!!IIIF:
!!!ONB-nifc:
!!!AIN: 1 canto 1 piano
!!!key: G
**kern	**fing	**kern	**fing	**dynam	**kern	**text	**text	**text	**dynam
*part2	*	*part2	*	*part2	*part1	*part1	*part1	*part1	*part1
*staff3	*	*staff2	*	*staff2/3	*staff1	*staff1	*staff1	*staff1	*
*IGacmp	*	*IGacmp	*	*	*	*	*	*	*
*ICklav	*	*ICklav	*	*	*ICvox	*	*	*	*
*Ipiano	*	*Ipiano	*	*	*Icanto	*	*	*	*
*I"Fortepian.	*	*I"Fortepian.	*	*	*I"Śpiew.	*	*	*	*
*I'	*	*I'	*	*	*I'	*	*	*	*
*clefF4	*	*clefG2	*	*	*clefG2	*	*	*	*
*k[f#]	*	*k[f#]	*	*	*k[f#]	*	*	*	*
*G:	*	*G:	*	*	*G:	*	*	*	*
*M3/4	*	*M3/4	*	*	*M3/4	*	*	*	*
!!LO:TX:a:B:t=Molto moderato.
4D\	.	4d/	2	mf	4d/	Przy-	Gdzie	Przy-	.
=1	=1	=1	=1	=1	=1	=1	=1	=1	=1
*^	*	*	*	*	*	*	*	*	*
8.GG/L	2.GG\	.	8.gL 8.B/	1 5	.	8.g/	-by-	ty,	-by-	.
16G/Jk	.	.	16bJk 16d/	.	.	16b\	-waj	pa-	-waj	.
4G/	.	.	4a 4g 4c/	.	.	4a/	ho-	-nu-	ho-	.
4G/	.	.	4g 4B/	1 4	.	4g/	-ża	-je	-ża	.
*v	*v	*	*	*	*	*	*	*	*	*
=2	=2	=2	=2	=2	=2	=2	=2	=2	=2
*	*below	*	*	*	*	*	*	*	*
4C/	3	4ee 4g 4e/	.	.	8.ee\	w wień-	ra-	w peł-	.
.	.	.	.	.	16cc\	-cu	-dość	-ni	.
2D\	.	2a 2f# 2d/	4	.	2a/	róż,	w krąg,	kras,	.
=3	=3	=3	=3	=3	=3	=3	=3	=3	=3
(2BB/	.	(>2dd 2g 2d/	.	.	4.dd\	.	won-	.	.
.	.	.	.	.	8b\	.	-na,	.	.
4C#X/)	.	4g 4e 4A/)	.	.	8a/	.	wdzięcz-	.	.
.	.	.	.	.	8g/	.	-na	.	.
!!LO:LB:g=original
=4	=4	=4	=4	=4	=4	=4	=4	=4	=4
4D\	.	4b 4g 4d/	.	.	4b\	.	wio-	.	.
4D\	.	4a 4f# 4d/	.	.	4a/	.	-sno!	.	.
8r	.	8r	.	.	8r	.	.	.	.
8D\	.	8d/	2	.	8d/	do	śród	baw	.
=5	=5	=5	=5	=5	=5	=5	=5	=5	=5
*^	*	*	*	*	*	*	*	*	*
8.GG/L	2.GG\	.	8.gL 8.B/	.	.	8.g/	na-	ga-	jak	.
16G/Jk	.	.	16bJk 16d/	.	.	16b\	-szych	-jów,	naj-	.
4G\	.	.	4a 4g 4c/	.	.	4a/	pól,	la-	-dłu-	.
4B\	.	.	4g 4B/	.	.	4g/	do	-sów,	-żej	.
*v	*v	*	*	*	*	*	*	*	*	*
=6	=6	=6	=6	=6	=6	=6	=6	=6	=6
4AA/	.	4gg 4cc#X 4g\	.	fp	8.gg\	na-	pól	po-	.
.	.	.	.	.	16ee\	-szych	i	-śród	.
2A\	.	2cc# 2e/	.	.	2cc#X\	wzgórz,	łąk,	nas,	.
!!LO:LB:g=original
=7	=7	=7	=7	=7	=7	=7	=7	=7	=7
*	*	*^	*	*	*	*	*	*	*
*	*	*	*	*^	*	*	*	*	*	*
2A 2AA\	.	2dd 2a 2f#/	2ryy	.	.	.	4.dd\	.	won-	.	.
.	.	.	.	.	.	.	8a/	.	-na,	.	.
4AA/	.	(8aL 8f#/	4c#X\	3 5	1	.	8a/	.	wdzięcz-	.	.
.	.	8gJ 8e/)	.	.	.	.	8g/	.	-na	.	.
*	*	*	*	*v	*v	*	*	*	*	*	*
*	*	*v	*v	*	*	*	*	*	*	*
=8	=8	=8	=8	=8	=8	=8	=8	=8	=8
4D\	.	4g 4d 4A/	.	.	4g/	.	wio-	.	.
4D\	.	4f# 4d 4A/	.	.	4f#/	.	-sno!	.	.
4r	.	4r	.	.	4r	.	.	.	.
=9	=9	=9	=9	=9	=9	=9	=9	=9	=9
*^	*	*^	*	*	*	*	*	*	*
*ped	*	*	*	*	*	*	*Xbrackettup	*	*	*	*
!	!	!	!	!	!	!	!LO:TUP:a:problem:klamra łukowa	!	!	!	!
4D'\	4ryy	.	4d'/	4ryy	.	.	12d/L	świat	Gwa-	Ludz-	.
.	.	.	.	.	.	.	12f#/J	.	.	.	.
.	.	.	.	.	.	.	12a/	przed	-rem	-kich	.
(4cn/	2A\	.	(4ccn/	2a\	.	.	4cc\	to-	się	serc	.
*Xped	*	*	*	*	*	*	*	*	*	*	*
4e/)	.	.	4ee/)	.	.	.	4ee\	-bą	o-	roz-	.
*v	*v	*	*	*	*	*	*	*	*	*	*
*	*	*v	*v	*	*	*	*	*	*	*
=10	=10	=10	=10	=10	=10	=10	=10	=10	=10
*ped	*	*	*	*	*	*	*	*	*
!	!	!	!	!	!LO:TUP:a:problem:klamra łukowa	!	!	!	!
[<4D\	.	[4d/	.	.	12d/L	ko-	-ży-	-jaś-	.
.	.	.	.	.	12f#/J	.	.	.	.
.	.	.	.	.	12a/	-rzy	-wia	-nij	.
2c 2A 2D\]	.	2cc 2a 2d/]	.	.	2cc\	się,	bór,	głąb,	.
*Xped	*	*	*	*	*	*	*	*	*
!!LO:LB:g=original
=11	=11	=11	=11	=11	=11	=11	=11	=11	=11
!	!	!	!	!	!	!	!	!	!LO:HP:a
8.G\L	3	8.bL 8.g\	.	<	8.b\	pie-	brzmi	nio-	<
16G\K	.	16bK 16g\	.	.	16b\	-śnią	na	-sąc	.
8A\	.	8cc 8g\	.	.	8cc\	więc	two-	ra-	.
8B\	1	8dd 8g\	.	.	8dd\	i	-ją,	-dość	.
8c\	3	8ee 8g\	.	.	8ee\	my	cześć	im	.
8d\J	.	8ff#J 8g\	.	[	8ff#\	wi-	sko-	na	[
=12	=12	=12	=12	=12	=12	=12	=12	=12	=12
*^	*	*	*	*	*	*	*	*	*
(8.e/L	4G\	.	(8.ggL 8.g\	.	.	8.gg\	-ta-	-wron-	zie-	.
16c/Jk	.	.	16ee\Jk	.	.	16ee\	-my	-ków	-mię	.
!	!	!	!	!	!	!	!	!	!	!LO:HP:a
4.B/)	4.G\	.	4.dd 4.g\)	.	>]]	4.dd\	cię,	chór,	zstąp,	>]]
!	!	!	!	!	!	!	!	!	!	!LO:DY:a
8r	8ryy	.	8d/	.	.	8d/	wi-	sko-	na	p
*v	*v	*	*	*	*	*	*	*	*	*
=13	=13	=13	=13	=13	=13	=13	=13	=13	=13
(8.D\L	4	(8.ccL 8.f#/	2 5	p	8.cc\	-ta-	-wron-	zie-	.
16F#\Jk	.	16aJk 16d 16c/	1 2 5	.	16a/	-my	-ków	-mię	.
4G;\)	.	4g 4d 4B;/)	4	.	4g;/	cię!	chór!	zstąp!	.
==	==	==	==	==	==	==	==	==	==
*-	*-	*-	*-	*-	*-	*-	*-	*-	*-
!!!system-decoration: s1{(s2,s3)}
!!!RDF**kern: > = above
!!!RDF**kern: < = below
!!!RDF**kern: N = linked
!!!ENC: Andrzej Gręziak
!!!EED: Katarzyna Serwa
!!!END: 2025-03-26
!!!EEV: 2025-03-27
